Papirus/16x16/apps/tomato.svg

<svg xmlns="http://www.w3.org/2000/svg" width="16" height="16" version="1">
 <circle fill="#e74c3c" cx="8" cy="9" r="7"/>
 <path fill="#a6ef4d" fill-rule="evenodd" d="m6.0486 1.0005c-0.0512 0.0019-0.1033 0.0099-0.155 0.0246-0.2753 0.0784-0.428 0.3161-0.3424 0.5328l0.2148 0.5441c-3.1133 0.2668-4.766 3.1867-4.766 3.1867s1.0418 0.17415 3.5544-1.0595c0.6982-0.3428 1.1006-0.7112 1.3303-1.0446-0.0474 0.3439-0.0405 0.7848 0.0704 1.3471 0.2783 1.4124 1.4413 2.4683 1.4413 2.4683s1.4076-2.0777-0.1018-4.1142c2.2263 1.3442 5.7054 0.76 5.7054 0.76s-1.5585-1.3143-3.2132-1.6419c-1.2347-0.2445-2.3714-0.0848-2.9623 0.0393-0.0004-0.0402-0.0079-0.0808-0.0237-0.1206l-0.2557-0.6478c-0.0696-0.1761-0.2744-0.28264-0.4965-0.2743z"/>
</svg>

<svg xmlns="http://www.w3.org/2000/svg" width="16" height="16" version="1">
 <circle fill="#e74c3c" cx="8" cy="9" r="7"/>
 <path fill="#a6ef4d" d="M 6.05,1 C 6,1 5.95,1.01 5.89,1.03 5.62,1.1 5.47,1.34 5.55,1.56 L 5.77,2.1 C 2.65,2.37 1,5.29 1,5.29 1,5.29 2.04,5.46 4.55,4.23 5.25,3.89 5.66,3.52 5.88,3.18 5.84,3.53 5.84,3.97 5.96,4.53 6.23,5.94 7.4,7 7.4,7 7.4,7 8.8,4.92 7.29,2.89 9.52,4.23 13,3.65 13,3.65 13,3.65 11.44,2.33 9.79,2 8.55,1.76 7.42,1.88 6.82,2 L 6.55,1.27 C 6.48,1.1 6.26,1 6.05,1 Z"/>
</svg>
